X: 26
%
U:~=!turn!
T: New Christmas
T: The Bass Reel
C:
O:Scotland
B:Keith Norman MacDonald : "The Skye collection of the best reels & strathspeys extant" : 1887
Z:Ralph Palmer
R:Reel
M:C
L:1/8
K:G
c | ~B2 GB dgdB | g2 (b/a/g) aAAc | B2 GB dgdB | cAdB G/G/G G :| D | (B,/A,/G,) (.D.G,) EG,DG, | (B,/A,/G,) (.D.G,) EA,A,D |
(B,/A,/G,) DG, EG,DG, | EGFA GG,G,D | (B,/A,/G,) DG, EG,DG, | (B,/A,/G,) DG, EA,A,D | (B,/A,/G,) DG, EG,DG, | (E/F/G) (F/G/A) GG,G,|]


